src/beaker.svg

<?xml version="1.0" encoding="utf-8"?>
<!-- Generated by IcoMoon.io -->
<!DOCTYPE svg PUBLIC "-//W3C//DTD SVG 1.1//EN" "http://www.w3.org/Graphics/SVG/1.1/DTD/svg11.dtd">
<svg version="1.1" xmlns="http://www.w3.org/2000/svg" xmlns:xlink="http://www.w3.org/1999/xlink" width="512" height="512" viewBox="0 0 512 512">
<path fill="#000000" d="M143.5 192.5v223.5c0 8.836 7.851 16.5 16.688 16.5h208c8.836 0 15.312-7.664 15.312-16.5v-223.5h-240zM359.5 344c0 4.418-3.582 8-8 8s-8-3.582-8-8v-48c0-4.418 3.582-8 8-8s8 3.582 8 8v48zM352.188 272c-4.418 0-8-3.581-8-8s3.582-8 8-8 8 3.581 8 8-3.583 8-8 8z"></path>
<path fill="#000000" d="M445.078 32.5h-316.64c-54.345 0-64.594 27.426-64.594 39.75 30.25 4.25 31.656 4.75 31.656 36.75 0 16 0 307 0 307 0 35.346 29.341 64.5 64.688 64.5h207.75c35.346 0 63.562-29.154 63.562-64.5 0 0 0-316.75 0-335.5 0-20.349 12.298-38.276 13.516-40.183s3-3.798 3-4.958c0-1.171-0.416-2.859-2.938-2.859zM399.5 80.5v335.5c0 17.92-12.443 32.5-29.812 32.5h-209.5c-17.617 0-32.688-14.883-32.688-32.5v-307c0-11.812 1.094-37.25-3.828-43.957 0.921-0.793 3.114-0.543 4.516-0.543h272.66c-0.736 0-1.348 10.799-1.348 16z"></path>
</svg>

<?xml version="1.0" encoding="utf-8"?>
<!-- Generator: Adobe Illustrator 16.2.1, SVG Export Plug-In . SVG Version: 6.00 Build 0)  -->
<!DOCTYPE svg PUBLIC "-//W3C//DTD SVG 1.1//EN" "http://www.w3.org/Graphics/SVG/1.1/DTD/svg11.dtd">
<svg version="1.1" id="Layer_1" xmlns="http://www.w3.org/2000/svg" xmlns:xlink="http://www.w3.org/1999/xlink" x="0px" y="0px"
	 width="512px" height="512px" viewBox="0 0 512 512" enable-background="new 0 0 512 512" xml:space="preserve">
<g>
	<g>
		<path d="M143.5,192.5V416c0,8.836,7.851,16.5,16.688,16.5h208c8.836,0,15.312-7.664,15.312-16.5V192.5H143.5z M359.5,344
			c0,4.418-3.582,8-8,8s-8-3.582-8-8v-48c0-4.418,3.582-8,8-8s8,3.582,8,8V344z M352.188,272c-4.418,0-8-3.581-8-8s3.582-8,8-8
			s8,3.581,8,8S356.605,272,352.188,272z"/>
	</g>
	<g>
		<path d="M445.078,32.5H128.438c-54.345,0-64.594,27.426-64.594,39.75C94.094,76.5,95.5,77,95.5,109c0,16,0,307,0,307
			c0,35.346,29.341,64.5,64.688,64.5h207.75c35.346,0,63.562-29.154,63.562-64.5c0,0,0-316.75,0-335.5
			c0-20.349,12.298-38.276,13.516-40.183c1.219-1.906,3-3.798,3-4.958C448.016,34.188,447.6,32.5,445.078,32.5z M399.5,80.5V416
			c0,17.92-12.443,32.5-29.812,32.5h-209.5c-17.617,0-32.688-14.883-32.688-32.5V109c0-11.812,1.094-37.25-3.828-43.957
			c0.921-0.793,3.114-0.543,4.516-0.543h272.66C400.112,64.5,399.5,75.299,399.5,80.5z"/>
	</g>
</g>
</svg>
